X:1
T:Grimsby Lads
M:3/4
L:1/4
K:G
 D3/2 G/2 G| G D G| A B c| B2 G| c3/2 d/2 e| d B G| G/2 A3/2 B| A3|\
 D G G| G- D G| A B c| B2 G| e3/2 d/2 c| B c d| c A F| G2 B| B B3/2 B/2|\
 B A G| A3/2 B/2 c| B2 G| E F G| B B G| G/2G/2 A B| A3| D/2D/2 G G|\
 G D G| A B c| B3/2 G/2 G| e d c| B/2 c3/2 d| c A F| G3|
